static/images/click.svg

<svg height="100" viewBox="0 0 100 100" width="100" xmlns="http://www.w3.org/2000/svg" xmlns:xlink="http://www.w3.org/1999/xlink"><defs><circle id="a" cx="58" cy="45" r="35"/><filter id="b" height="174.3%" width="174.3%" x="-37.1%" y="-31.4%"><feOffset dx="0" dy="4" in="SourceAlpha" result="shadowOffsetOuter1"/><feGaussianBlur in="shadowOffsetOuter1" result="shadowBlurOuter1" stdDeviation="8"/><feColorMatrix in="shadowBlurOuter1" type="matrix" values="0 0 0 0 0.254901961   0 0 0 0 0.458823529   0 0 0 0 0.647058824  0 0 0 0.24 0"/></filter><linearGradient id="c" x1="0%" x2="149.460671%" y1="0%" y2="71.875%"><stop offset="0" stop-color="#00eaf8"/><stop offset="1" stop-color="#6d42ef"/></linearGradient></defs><g fill="none" fill-rule="evenodd"><g fill-rule="nonzero"><use fill="#000" filter="url(#b)" xlink:href="#a"/><use fill="#fff" fill-rule="evenodd" xlink:href="#a"/></g><path d="m44.9450991 51.418375c.3925431 0 .7769397.1593103 1.0548276.4371983l15.4202155 15.4217241 4.8496121-4.852931-15.4199138-15.4196121c-.3300862-.3312931-.4848707-.7868965-.4239224-1.2497414.0600431-.4577155.3337069-.8677586.7325862-1.0976724l10.22-5.9038362-39.3046983-15.6784914 15.6760776 39.3098276 5.9023276-10.22c.2302155-.3994827.6405604-.6734483 1.0979741-.7340948.0603449-.0072414.1270259-.0123707.1949138-.0123707m16.4747414 19.46c-.3994827 0-.7742241-.1553879-1.0557327-.4371983l-15.1000862-15.1009914-6.4677587 11.2c-.2658189.4598276-.7600431.7455604-1.2898707.7455604-.0362069 0-.0730172-.0015086-.1092241-.0042241-.5675431-.0410345-1.0696121-.4076294-1.2793103-.9344397l-18.1022414-45.3925862c-.2211638-.554569-.0914224-1.1860776.3306896-1.6081897.2818104-.2812069.6568535-.4362931 1.0551293-.4362931.1897845 0 .3753449.0356035.5521552.1065087l45.3880604 18.1043534c.5277155.2103017.8940086.7114655.9350431 1.2781034.0413362.5747845-.2431897 1.11125-.7428449 1.3996983l-11.1981896 6.4701724 15.0997845 15.1006897c.2824138.2821121.4375.6565517.4375 1.0551293 0 .3982759-.1550862.7727155-.4371983 1.0542241l-6.9610776 6.9622845c-.2821121.2818104-.6565517.4371983-1.0548276.4371983zm-48.1698965-56.1351983c-.3982759 0-.7730173-.1553879-1.0548276-.4371983l-5.32693968-5.32724133c-.28271551-.28211207-.43810344-.65655173-.43810344-1.05512931 0-.39857759.15568965-.77362069.43780172-1.05603448.28181034-.2812069.65685345-.43629311 1.05543103-.43629311.39857759 0 .77362069.15508621 1.05573276.43689655l5.32573281 5.32693968c.282112.2824138.4375.6571552.4375 1.0557327 0 .3985776-.1550863.7730173-.4371983 1.0548276-.2821121.2821121-.6568535.4375-1.0551293.4375zm-11.75797848 9.5514699c-.82280173 0-1.49202586-.6698276-1.49202586-1.4932328 0-.8221983.66922413-1.490819 1.49202586-1.490819h7.53375c.82280172 0 1.49202588.6686207 1.49202588 1.490819 0 .8225-.66952588 1.4926293-1.49262933 1.4932328zm5.32763362 14.4215991c-.39827586 0-.77301724-.1553879-1.05512931-.4375-.28211207-.2818104-.4375-.65625-.4375-1.0545259 0-.3985776.15538793-.7730172.43719827-1.0545258l5.3278448-5.3278449c.2821121-.2824138.65625-.4375 1.0548276-.4375.3982759 0 .7727155.155388 1.0542242.4371983.2827155.2821121.4381034.6568535.4381034 1.0551293 0 .3982759-.1553879.7730173-.4371983 1.0545259l-5.32754308 5.3278448c-.28211206.2818104-.65685344.4371983-1.05482758.4371983zm15.98045686-28.1972069c-.8228017 0-1.4920258-.66922414-1.4920258-1.49202587v-7.5349569c0-.82280172.6692241-1.49202586 1.4920258-1.49202586.8231035 0 1.4923276.66922414 1.4923276 1.49202586v7.53375c0 .82340518-.6692241 1.49323277-1.4923276 1.49323277zm9.0931207 3.1199181c-.3988793 0-.7733189-.1550862-1.0551293-.4362931-.5811207-.5820259-.5811207-1.5291379.0003017-2.1108621l5.3272414-5.32724136c.2818104-.28150862.65625-.43659482 1.0548276-.43659482.3988793 0 .773319.1550862 1.0548276.43659482.2821121.28211207.4378017.6574569.4378017 1.05603449 0 .39827586-.1553879.77271551-.4375 1.05422414l-5.3263362 5.32814653c-.2815086.2809052-.6565517.4359914-1.0560345.4359914z" fill="url(#c)" transform="translate(10 17)"/></g></svg>

<?xml version="1.0" encoding="UTF-8"?>
<svg width="100px" height="100px" viewBox="0 0 100 100" version="1.1" xmlns="http://www.w3.org/2000/svg" xmlns:xlink="http://www.w3.org/1999/xlink">
    <!-- Generator: sketchtool 46.2 (44496) - http://www.bohemiancoding.com/sketch -->
    <title>40989AFF-547C-42CF-A67C-9BFBF9B874CC</title>
    <desc>Created with sketchtool.</desc>
    <defs>
        <circle id="path-1" cx="58" cy="45" r="35"></circle>
        <filter x="-37.1%" y="-31.4%" width="174.3%" height="174.3%" filterUnits="objectBoundingBox" id="filter-2">
            <feOffset dx="0" dy="4" in="SourceAlpha" result="shadowOffsetOuter1"></feOffset>
            <feGaussianBlur stdDeviation="8" in="shadowOffsetOuter1" result="shadowBlurOuter1"></feGaussianBlur>
            <feColorMatrix values="0 0 0 0 0.254901961   0 0 0 0 0.458823529   0 0 0 0 0.647058824  0 0 0 0.24 0" type="matrix" in="shadowBlurOuter1"></feColorMatrix>
        </filter>
        <linearGradient x1="0%" y1="0%" x2="149.460671%" y2="71.875%" id="linearGradient-3">
            <stop stop-color="#00EAF8" offset="0%"></stop>
            <stop stop-color="#6D42EF" offset="100%"></stop>
        </linearGradient>
    </defs>
    <g id="Symbols" stroke="none" stroke-width="1" fill="none" fill-rule="evenodd">
        <g id="ic/click">
            <g id="Oval" fill-rule="nonzero">
                <use fill="black" fill-opacity="1" filter="url(#filter-2)" xlink:href="#path-1"></use>
                <use fill="#FFFFFF" fill-rule="evenodd" xlink:href="#path-1"></use>
            </g>
            <g id="Page-1" transform="translate(10.000000, 17.000000)" fill="url(#linearGradient-3)">
                <path d="M44.9450991,51.418375 C45.3376422,51.418375 45.7220388,51.5776853 45.9999267,51.8555733 L61.4201422,67.2772974 L66.2697543,62.4243664 L50.8498405,47.0047543 C50.5197543,46.6734612 50.3649698,46.2178578 50.4259181,45.7550129 C50.4859612,45.2972974 50.759625,44.8872543 51.1585043,44.6573405 L61.3785043,38.7535043 L22.073806,23.0750129 L37.7498836,62.3848405 L43.6522112,52.1648405 C43.8824267,51.7653578 44.2927716,51.4913922 44.7501853,51.4307457 C44.8105302,51.4235043 44.8772112,51.418375 44.9450991,51.418375 M61.4198405,70.878375 C61.0203578,70.878375 60.6456164,70.7229871 60.3641078,70.4411767 L45.2640216,55.3401853 L38.7962629,66.5401853 C38.530444,67.0000129 38.0362198,67.2857457 37.5063922,67.2857457 C37.4701853,67.2857457 37.433375,67.2842371 37.3971681,67.2815216 C36.829625,67.2404871 36.327556,66.8738922 36.1178578,66.3470819 L18.0156164,20.9544957 C17.7944526,20.3999267 17.924194,19.7684181 18.346306,19.346306 C18.6281164,19.0650991 19.0031595,18.9100129 19.4014353,18.9100129 C19.5912198,18.9100129 19.7767802,18.9456164 19.9535905,19.0165216 L65.3416509,37.120875 C65.8693664,37.3311767 66.2356595,37.8323405 66.276694,38.3989784 C66.3180302,38.9737629 66.0335043,39.5102284 65.5338491,39.7986767 L54.3356595,46.2688491 L69.435444,61.3695388 C69.7178578,61.6516509 69.872944,62.0260905 69.872944,62.4246681 C69.872944,62.822944 69.7178578,63.1973836 69.4357457,63.4788922 L62.4746681,70.4411767 C62.192556,70.7229871 61.8181164,70.878375 61.4198405,70.878375 Z M13.249944,14.7431767 C12.8516681,14.7431767 12.4769267,14.5877888 12.1951164,14.3059784 L6.86817672,8.97873707 C6.58546121,8.696625 6.43007328,8.32218534 6.43007328,7.92360776 C6.43007328,7.52503017 6.58576293,7.14998707 6.867875,6.86757328 C7.14968534,6.58636638 7.52472845,6.43128017 7.92330603,6.43128017 C8.32188362,6.43128017 8.69692672,6.58636638 8.97903879,6.86817672 L14.3047716,12.1951164 C14.5868836,12.4775302 14.7422716,12.8522716 14.7422716,13.2508491 C14.7422716,13.6494267 14.5871853,14.0238664 14.3050733,14.3056767 C14.0229612,14.5877888 13.6482198,14.7431767 13.249944,14.7431767 Z M1.49196552,24.2946466 C0.669163793,24.2946466 -6.03448279e-05,23.624819 -6.03448279e-05,22.8014138 C-6.03448279e-05,21.9792155 0.669163793,21.3105948 1.49196552,21.3105948 L9.02571552,21.3105948 C9.84851724,21.3105948 10.5177414,21.9792155 10.5177414,22.8014138 C10.5177414,23.6239138 9.84821552,24.2940431 9.02511207,24.2946466 L1.49196552,24.2946466 Z M6.81959914,38.7162457 C6.42132328,38.7162457 6.0465819,38.5608578 5.76446983,38.2787457 C5.48235776,37.9969353 5.32696983,37.6224957 5.32696983,37.2242198 C5.32696983,36.8256422 5.48235776,36.4512026 5.7641681,36.169694 L11.0920129,30.8418491 C11.374125,30.5594353 11.7482629,30.4043491 12.1468405,30.4043491 C12.5451164,30.4043491 12.919556,30.5597371 13.2010647,30.8415474 C13.4837802,31.1236595 13.6391681,31.4984009 13.6391681,31.8966767 C13.6391681,32.2949526 13.4837802,32.669694 13.2019698,32.9512026 L7.87442672,38.2790474 C7.59231466,38.5608578 7.21757328,38.7162457 6.81959914,38.7162457 Z M22.800056,10.5190388 C21.9772543,10.5190388 21.3080302,9.84981466 21.3080302,9.02701293 L21.3080302,1.49205603 C21.3080302,0.66925431 21.9772543,3.01724138e-05 22.800056,3.01724138e-05 C23.6231595,3.01724138e-05 24.2923836,0.66925431 24.2923836,1.49205603 L24.2923836,9.02580603 C24.2923836,9.84921121 23.6231595,10.5190388 22.800056,10.5190388 Z M31.8931767,13.6389569 C31.4942974,13.6389569 31.1198578,13.4838707 30.8380474,13.2026638 C30.2569267,12.6206379 30.2569267,11.6735259 30.8383491,11.0918017 L36.1655905,5.76456034 C36.4474009,5.48305172 36.8218405,5.32796552 37.2204181,5.32796552 C37.6192974,5.32796552 37.9937371,5.48305172 38.2752457,5.76456034 C38.5573578,6.04667241 38.7130474,6.42201724 38.7130474,6.82059483 C38.7130474,7.21887069 38.5576595,7.59331034 38.2755474,7.87481897 L32.9492112,13.2029655 C32.6677026,13.4838707 32.2926595,13.6389569 31.8931767,13.6389569 Z" id="Combined-Shape"></path>
            </g>
        </g>
    </g>
</svg>
